build/images/icons/contacts-clock-icon.svg

<svg width="16" height="16" viewBox="0 0 16 16" fill="none" xmlns="http://www.w3.org/2000/svg">
<path d="M8 0C12.4113 0 16 3.58866 16 8C16 12.4113 12.4113 16 8 16C3.58866 16 0 12.4113 0 8C0 3.58866 3.58866 0 8 0ZM7.33334 8C7.33334 8.36866 7.63134 8.66666 8 8.66666H10.6667C11.0353 8.66666 11.3333 8.36866 11.3333 8C11.3333 7.63134 11.0353 7.33334 10.6667 7.33334H8.66666V3.33334C8.66666 2.96469 8.36866 2.66669 8 2.66669C7.63134 2.66669 7.33334 2.96469 7.33334 3.33334V8Z" fill="#52BFFF"/>
</svg>

<svg width="16" height="16" fill="none" xmlns="http://www.w3.org/2000/svg"><path d="M8 0c4.411 0 8 3.589 8 8s-3.589 8-8 8-8-3.589-8-8 3.589-8 8-8Zm-.667 8c0 .369.298.667.667.667h2.667a.666.666 0 1 0 0-1.334h-2v-4a.666.666 0 1 0-1.334 0V8Z" fill="#52BFFF"/></svg>
